X: 9
T: The Cock And The Hen
R: slip jig
M: 9/8
L: 1/8
K: Edor
|:F3 FEF c2E| F3 FEF AFE|F3 FEF c2d|ecA BAF AFE|
F3 FEF c2E| F3 FEF AFE|F3 FEF c2d|ecA BAF AFE||
|:ecA ABc d3 | ecA BAF AFE | ecA ABc d2B | cBA BAF AFE |
ecA ABc d3 | ecA BAF AFE| ecA ABc d2B | cBA BAF AFE ||


Tune 93	Setting 25800

